<?xml version="1.0" encoding="UTF-8"?>
<map version="1.10" tiledversion="1.12.1" orientation="orthogonal" renderorder="right-down" width="60" height="60" tilewidth="32" tileheight="32" infinite="0" nextlayerid="12" nextobjectid="154">
 <editorsettings>
  <export target="educash_01.json" format="json"/>
 </editorsettings>
 <tileset firstgid="1" name="Serene_Village_32x32" tilewidth="32" tileheight="32" tilecount="855" columns="19">
  <image source="../tilesets/Serene_Village_32x32.png" width="608" height="1440"/>
 </tileset>
 <tileset firstgid="856" name="mafia - bold" tilewidth="32" tileheight="32" tilecount="16" columns="4" objectalignment="bottom">
  <image source="../sprites/mafia - bold.png" width="128" height="128"/>
 </tileset>
 <tileset firstgid="872" name="Serene_Village_32x32" tilewidth="32" tileheight="32" tilecount="855" columns="19">
  <image source="../tilesets/Serene_Village_32x32.png" width="608" height="1440"/>
 </tileset>
 <layer id="7" name="Contorno" width="60" height="60" locked="1">
  <data encoding="csv">
0,135,135,135,135,135,135,135,136,137,138,138,138,138,138,138,138,138,138,138,138,138,138,138,138,137,21,292,0,0,0,0,292,0,0,0,0,0,0,0,0,0,0,0,0,0,0,0,0,0,0,0,0,0,0,0,0,0,0,0,
0,0,0,0,0,0,0,0,0,265,266,0,0,0,0,0,0,0,0,0,0,0,0,0,0,0,0,311,0,0,0,0,311,0,0,0,0,0,0,0,0,0,0,0,0,0,0,0,0,0,0,0,0,0,0,0,0,0,0,0,
0,0,0,0,0,0,0,0,0,284,285,0,0,0,0,0,0,0,0,0,0,0,0,0,0,0,0,311,0,0,0,0,311,0,0,0,0,0,0,244,245,0,269,269,269,269,0,244,245,0,0,0,0,0,0,0,0,0,0,0,
0,0,0,0,0,0,0,0,0,269,269,0,0,0,0,0,0,0,0,0,0,0,0,0,0,0,236,311,0,0,0,0,311,295,296,297,298,299,0,263,264,269,269,269,269,269,250,263,264,265,266,269,269,269,269,269,269,265,266,0,
0,0,0,0,0,0,0,0,0,0,0,0,0,0,0,0,0,0,0,0,0,0,0,0,0,0,0,311,0,0,0,0,311,314,315,316,317,318,0,282,283,0,0,0,0,0,0,282,283,284,285,0,0,0,0,0,0,284,285,0,
0,0,0,0,0,0,0,0,0,0,0,0,0,0,0,0,0,0,0,0,0,0,0,0,0,0,0,311,0,0,0,0,311,333,334,335,336,337,0,0,269,0,0,0,0,0,0,269,245,269,269,0,0,0,0,0,0,269,269,0,
0,0,0,0,0,0,0,0,0,0,0,0,0,0,0,0,0,0,0,0,0,0,0,0,0,0,0,311,97,97,97,97,311,0,0,0,0,0,0,307,308,0,0,0,0,0,0,263,264,265,266,0,0,0,0,0,0,265,266,231,
0,0,0,0,0,0,0,0,0,0,0,0,0,0,0,0,0,0,0,0,0,0,0,0,0,0,0,0,0,0,0,0,250,250,0,0,0,0,0,326,327,0,0,0,0,0,0,282,283,284,285,0,0,0,0,0,0,284,285,0,
0,0,136,137,138,138,137,138,138,138,138,136,137,138,137,138,135,136,137,138,136,137,138,0,0,0,0,0,0,0,0,0,381,269,0,0,0,0,0,0,0,0,0,0,0,0,0,0,0,0,269,269,269,0,0,269,269,269,269,269,
0,0,0,0,0,0,0,0,0,0,0,0,0,0,0,0,0,0,0,0,0,0,0,158,0,0,0,0,0,0,0,0,0,0,0,0,0,0,0,0,0,0,0,0,0,0,0,0,0,0,0,0,0,0,0,0,269,269,0,269,
0,0,0,0,0,0,0,381,286,0,0,0,0,0,0,0,0,0,0,0,0,0,0,0,0,0,0,0,0,0,0,0,0,0,0,0,0,0,0,0,0,0,0,0,0,0,0,0,0,0,0,0,0,0,0,0,269,269,0,0,
0,269,0,0,0,0,0,269,269,0,0,0,0,0,0,0,0,0,0,0,0,0,0,0,0,0,0,0,0,0,0,0,0,0,0,0,0,0,0,0,0,0,0,0,0,0,0,0,0,0,0,0,0,0,0,0,0,0,0,0,
0,269,0,0,0,0,0,232,269,0,0,0,0,0,0,0,0,0,0,0,0,0,0,0,0,0,0,0,0,0,0,0,0,0,0,0,0,0,0,0,231,232,233,233,233,233,233,231,232,250,415,269,269,269,269,269,269,269,269,269,
0,269,0,0,0,0,0,269,232,0,0,0,0,0,0,0,0,0,0,0,0,0,0,0,0,0,0,0,0,0,0,0,0,0,0,0,0,0,0,0,0,250,269,269,250,269,0,231,233,269,250,0,0,0,0,0,0,0,0,0,
0,269,0,0,0,0,0,232,269,0,0,0,0,0,0,0,0,0,0,0,0,0,0,0,0,0,0,0,0,0,0,0,0,0,0,0,0,0,0,0,0,250,250,250,0,236,269,231,232,415,269,0,0,0,0,0,0,0,0,0,
0,269,0,0,0,0,0,269,232,0,0,0,0,0,0,0,0,0,0,0,0,0,0,0,0,0,0,0,0,0,0,0,0,0,0,0,0,0,0,0,0,0,0,0,250,250,250,231,233,250,415,0,0,0,0,0,0,0,0,0,
0,269,0,0,0,0,0,232,269,0,0,0,0,0,0,0,0,0,0,0,0,0,0,0,0,0,0,0,0,0,0,0,0,0,0,0,0,0,0,0,0,0,0,0,0,0,0,231,232,269,232,0,0,0,0,0,0,0,0,0,
0,269,0,0,0,0,0,288,288,0,0,0,0,0,0,0,0,0,0,0,0,0,0,0,0,0,0,0,0,0,0,0,0,0,0,0,0,0,0,0,0,0,0,0,0,0,291,291,291,291,291,0,0,0,0,0,0,0,0,0,
0,0,0,0,0,0,0,0,0,0,0,0,0,0,0,0,0,0,0,0,0,0,0,0,0,0,0,0,0,0,0,0,0,0,0,0,0,0,0,0,0,0,0,0,0,0,0,0,0,0,0,0,0,0,0,0,0,0,0,0,
0,0,0,0,0,0,0,0,0,0,0,0,0,0,0,0,0,0,0,0,0,0,0,0,0,0,0,0,0,0,0,0,0,0,0,0,0,0,0,0,0,0,0,0,0,0,0,0,0,0,0,0,0,0,0,0,0,0,0,0,
0,0,0,0,0,0,0,0,0,0,0,0,0,0,0,0,0,0,0,0,0,0,0,0,0,0,0,0,0,0,0,0,0,0,0,0,0,0,0,0,291,291,291,0,0,238,239,0,0,0,0,0,0,0,0,0,0,0,0,0,
0,0,0,0,0,0,0,0,0,0,0,0,0,0,0,0,0,0,0,0,0,0,0,0,0,0,0,0,0,0,0,0,0,0,0,0,0,0,0,0,0,0,269,269,0,257,258,0,0,0,0,0,0,0,0,269,269,269,269,0,
0,0,0,0,0,0,0,0,0,0,0,0,0,0,0,0,0,0,0,0,0,0,0,0,0,0,0,0,0,0,0,0,0,0,0,0,0,0,0,0,0,0,0,0,0,276,277,0,0,0,0,0,0,0,0,269,269,0,269,0,
0,0,0,0,0,0,0,0,0,0,0,0,0,0,0,0,0,0,0,0,0,0,0,0,0,0,0,0,0,0,0,0,0,0,0,0,0,0,0,0,0,0,0,0,269,0,0,0,0,0,0,0,0,0,0,269,269,0,269,0,
0,0,0,0,0,0,0,0,0,0,0,0,0,0,0,0,0,0,0,0,0,0,0,0,0,0,0,0,0,0,0,0,0,0,0,0,0,0,0,0,269,0,0,0,269,0,0,0,0,0,0,0,0,0,0,269,269,0,269,0,
0,0,0,0,0,0,0,0,0,0,0,0,0,0,0,0,0,0,0,0,0,0,0,0,0,0,0,0,0,0,0,0,0,0,0,0,0,0,0,0,0,0,0,0,0,0,0,0,0,0,0,0,0,0,0,0,0,0,0,0,
0,0,0,0,0,0,0,0,0,0,0,0,0,0,0,0,0,0,0,0,0,0,0,0,0,0,0,0,0,0,0,0,0,0,0,0,0,0,0,0,0,0,0,0,0,0,0,0,0,0,0,0,0,0,0,0,0,0,0,0,
0,0,0,0,0,0,0,0,0,0,0,0,0,0,0,0,0,0,0,0,0,0,0,0,0,0,0,0,0,0,0,0,0,0,0,0,0,0,0,0,0,0,0,0,0,0,0,0,0,0,0,0,0,0,0,0,0,0,0,0,
0,0,0,0,0,0,0,0,0,0,0,0,0,0,0,0,0,0,0,0,0,0,0,0,0,0,0,0,0,0,0,0,0,0,0,0,0,0,231,269,0,250,235,0,0,233,250,0,0,0,0,234,235,0,269,250,0,231,232,269,
0,0,0,0,0,0,0,0,0,0,0,0,0,0,0,0,0,0,0,0,0,0,0,0,0,0,0,0,0,0,0,0,0,0,0,0,0,0,269,231,236,0,236,0,0,250,231,0,0,0,0,234,235,0,269,232,0,231,232,269,
0,0,0,0,0,0,0,0,0,0,0,0,0,0,0,0,0,0,0,0,0,0,0,0,0,0,0,0,0,0,0,0,0,0,0,0,0,0,0,0,0,0,0,0,0,0,0,0,0,0,0,0,0,0,0,0,0,0,0,0,
0,0,0,0,0,0,0,0,0,0,0,0,0,0,0,0,0,0,0,0,0,0,0,0,0,0,0,0,0,0,0,0,0,0,0,270,0,0,0,0,0,0,0,0,0,0,0,0,0,0,0,0,0,0,0,0,0,0,0,0,
0,0,0,0,0,0,0,0,0,0,0,0,0,0,0,0,0,0,0,0,0,0,0,0,0,0,0,0,0,0,0,0,0,0,287,382,0,0,0,0,0,0,0,0,0,0,0,0,0,0,0,0,0,0,0,0,0,0,0,0,
0,0,0,0,0,0,0,0,0,0,0,0,0,0,0,0,0,0,0,0,0,0,0,0,0,0,0,0,0,0,0,0,0,0,286,158,0,0,0,0,0,0,0,0,0,0,0,0,0,0,0,0,0,0,0,0,0,0,0,0,
0,0,0,0,0,0,0,0,0,0,0,0,0,0,0,0,0,0,0,0,0,0,0,0,0,0,0,0,0,0,0,0,0,0,286,158,0,0,0,0,0,0,0,0,0,0,0,0,0,0,0,0,0,0,0,0,0,0,0,0,
0,0,0,0,0,0,0,0,0,0,0,0,0,0,0,0,0,0,0,0,0,0,0,0,0,0,0,0,0,0,0,0,0,0,0,158,0,0,0,0,0,0,0,0,0,0,0,0,0,0,0,0,0,0,0,0,0,0,0,0,
0,0,0,0,0,0,0,0,0,0,0,0,0,0,0,0,0,0,0,0,0,0,0,0,0,0,0,0,0,0,0,0,0,0,286,158,0,0,0,0,0,0,0,0,0,0,0,0,0,0,0,0,0,0,0,0,0,0,0,0,
0,0,0,0,0,0,0,0,0,0,0,0,0,0,0,0,0,0,0,0,0,0,0,0,0,0,0,0,0,0,0,0,0,0,0,158,0,0,0,0,0,0,0,0,0,0,0,0,0,0,0,0,0,0,0,0,0,0,0,0,
0,0,0,0,0,0,0,0,0,0,0,0,0,0,0,0,0,0,0,0,0,0,0,0,0,0,0,0,0,0,0,0,0,0,286,158,0,0,0,0,0,0,0,0,0,0,0,0,0,0,0,0,0,0,0,0,0,0,0,0,
0,0,0,0,0,0,0,0,0,0,0,0,0,0,0,0,0,0,0,0,0,0,0,0,0,0,0,0,0,0,0,0,0,0,286,158,0,0,0,0,0,0,0,0,0,0,0,0,0,0,0,0,0,0,0,295,296,297,298,299,
0,0,0,0,0,0,0,0,0,0,0,0,0,0,0,0,0,0,0,0,0,0,0,0,0,0,0,0,0,0,0,0,0,0,286,158,0,0,0,0,0,0,0,0,0,0,0,0,0,0,0,0,0,0,0,314,315,316,317,318,
0,0,0,0,0,0,0,0,0,0,0,0,0,0,0,0,0,0,0,0,0,0,0,0,0,0,0,0,0,0,0,0,0,0,0,158,0,0,0,0,0,0,0,0,0,0,0,0,0,0,0,0,0,0,0,333,334,335,336,337,
0,0,0,0,0,0,0,0,0,0,0,0,0,0,0,0,0,0,0,0,0,0,0,0,0,0,0,0,0,0,0,0,0,0,286,158,0,0,0,0,0,0,0,0,0,0,0,0,0,0,0,0,0,0,0,415,416,0,269,269,
0,0,0,0,0,0,0,0,0,0,0,0,0,0,0,0,0,0,0,0,0,0,0,0,0,0,0,0,0,0,0,157,0,0,0,177,0,0,0,0,0,0,0,0,0,0,0,0,0,0,0,0,0,0,0,434,435,0,2684354810,270,
0,0,0,0,0,0,0,0,0,0,0,0,0,0,0,0,0,0,0,0,0,0,0,0,0,0,0,0,0,0,0,0,0,0,0,0,0,0,0,0,0,0,0,0,0,0,0,0,0,0,0,0,0,0,0,0,0,0,0,286,
0,0,0,0,0,0,0,0,0,0,0,0,0,0,0,0,0,0,0,0,0,0,0,0,0,0,0,0,0,0,0,0,0,0,0,0,0,0,0,0,0,0,0,0,0,0,0,0,0,0,0,0,0,0,0,0,0,0,0,269,
0,0,0,0,0,0,0,0,0,0,0,0,0,0,0,0,0,0,0,0,0,0,0,0,0,0,0,0,0,0,0,0,0,0,0,0,0,0,116,135,136,137,135,136,137,0,0,0,0,0,0,0,0,0,0,0,0,291,291,0,
0,0,0,0,0,0,0,0,0,0,0,0,0,0,0,0,0,0,0,0,0,0,0,0,0,0,0,0,0,0,0,0,135,136,135,136,137,138,153,0,269,286,269,284,286,0,0,0,0,0,0,0,0,0,0,0,269,269,269,269,
0,265,266,0,0,0,0,0,0,0,0,0,0,0,0,0,0,0,0,0,0,0,0,0,0,0,0,0,0,0,0,0,0,0,0,0,0,0,0,0,0,263,264,286,0,0,0,0,0,0,0,0,0,0,0,0,0,282,284,233,
0,284,285,0,0,0,0,269,269,269,269,0,0,0,0,269,269,269,269,269,0,0,269,269,269,269,269,0,0,0,0,0,0,0,0,0,0,0,0,0,235,282,283,0,0,0,0,0,0,0,0,0,0,0,0,0,0,0,0,269,
0,0,0,0,0,0,0,0,0,0,0,0,0,0,0,0,0,0,0,0,0,0,0,0,0,0,0,0,0,0,0,0,0,0,0,0,0,0,0,0,231,269,0,0,0,0,0,0,0,0,0,0,0,0,0,0,0,0,0,269,
0,0,0,0,250,0,250,0,0,0,0,0,0,0,0,0,0,0,0,0,0,0,0,0,0,0,0,0,0,0,0,0,0,0,0,157,0,157,291,330,286,0,0,0,0,0,0,0,0,0,0,0,0,0,0,0,0,0,0,0,
0,0,0,0,0,250,250,0,0,0,0,0,0,0,0,0,0,0,0,0,0,0,0,0,0,0,0,0,0,0,0,0,0,0,0,0,0,0,0,0,0,0,0,0,0,0,0,0,0,0,0,0,0,0,0,0,0,0,0,0,
0,0,0,0,250,550,551,0,0,0,0,0,0,0,0,0,0,0,0,0,0,0,0,0,0,0,0,0,0,0,0,0,0,0,0,0,0,0,0,0,0,0,0,0,0,0,0,0,0,0,0,0,0,0,0,0,0,0,0,0,
0,0,0,0,0,569,570,0,0,0,0,0,0,0,0,0,0,0,0,0,0,0,0,0,0,0,0,0,0,0,0,0,0,0,0,0,0,0,0,0,0,0,0,0,0,0,0,0,0,0,0,0,0,0,0,0,0,0,0,0,
0,0,0,0,250,0,250,0,0,0,0,0,0,0,0,0,0,0,0,0,0,0,0,0,0,0,0,0,0,0,0,0,0,0,0,0,0,0,0,0,0,0,0,0,0,0,0,0,0,0,0,0,0,0,0,0,0,0,0,0,
0,0,0,0,250,0,250,0,0,0,0,0,0,0,0,0,0,0,0,0,0,0,0,0,0,0,0,0,0,0,0,0,0,0,0,0,0,0,0,0,0,0,0,0,0,0,0,0,0,0,0,0,0,0,0,0,0,0,0,0,
0,0,0,0,0,0,0,0,0,0,0,0,0,0,0,0,0,0,0,0,0,0,0,0,0,0,0,0,0,0,0,0,0,0,0,0,0,0,0,0,0,0,0,0,0,0,0,0,0,0,0,0,0,0,0,0,0,0,0,0,
0,0,0,0,0,0,0,0,0,0,0,0,0,0,0,0,0,0,0,0,0,0,0,0,0,0,0,0,0,0,0,0,0,0,0,0,0,0,0,0,0,0,0,0,0,0,0,0,0,0,0,0,0,0,0,0,0,0,0,0,
0,0,0,0,0,0,0,0,0,0,0,0,0,0,0,0,0,0,0,0,0,0,0,0,0,0,0,0,0,0,0,0,0,0,0,0,0,0,0,0,0,0,0,0,0,0,0,0,0,0,0,0,0,0,0,0,0,0,0,0
</data>
 </layer>
 <group id="11" name="Agrupar 1" locked="1">
  <layer id="1" name="Chao_base verde" width="60" height="60" locked="1">
   <data encoding="csv">
80,81,82,83,84,82,83,84,82,81,82,83,84,82,81,82,83,84,82,81,82,83,84,82,83,84,21,100,101,102,103,102,103,22,82,83,84,81,82,83,84,81,82,83,84,81,82,83,84,81,82,83,84,81,82,83,81,82,83,123,
99,49,65,65,65,65,65,65,42,154,154,154,154,154,154,154,154,154,154,154,154,154,154,154,154,154,100,100,101,102,103,102,103,62,62,43,43,62,43,43,43,43,43,43,43,62,62,62,62,62,62,4,5,4,4,4,5,6,6,6,
99,49,49,49,49,49,49,49,49,154,154,154,154,154,154,154,154,154,154,154,154,154,154,154,154,154,100,100,101,102,103,102,103,154,154,62,62,154,62,62,62,62,62,62,62,154,154,154,154,154,154,4,5,6,4,4,4,5,6,154,
99,49,49,49,49,49,49,49,49,154,154,154,154,154,154,154,154,154,154,154,154,154,154,154,154,154,100,100,101,102,103,102,103,154,154,154,154,154,154,154,154,154,154,154,154,154,154,154,154,154,154,4,5,6,4,4,4,5,6,6,
99,49,49,49,49,49,49,49,49,154,154,154,154,154,154,154,154,154,154,154,154,154,154,154,154,154,100,100,101,102,103,102,103,154,154,154,154,154,154,154,154,154,154,154,154,154,154,154,154,154,154,4,5,6,4,4,5,4,5,6,
99,49,49,49,49,49,49,49,49,154,154,154,154,154,154,154,154,154,154,154,154,154,154,154,154,154,100,100,101,102,103,102,103,154,154,154,154,154,154,154,154,154,154,154,154,154,154,154,154,154,154,4,5,4,5,4,4,4,5,6,
99,49,49,49,49,49,49,49,49,154,154,154,154,154,154,154,154,154,154,154,154,154,154,154,154,154,100,100,101,102,103,102,103,154,154,154,154,154,154,154,154,154,154,154,154,154,154,154,154,154,154,4,5,4,5,4,4,5,6,154,
99,49,49,49,49,49,49,49,49,154,154,154,154,154,154,154,154,154,154,154,154,154,154,154,154,154,100,100,101,102,103,102,103,154,154,154,154,154,154,154,154,154,154,154,154,154,154,154,154,154,154,4,4,4,5,4,4,5,6,154,
99,49,49,49,49,49,49,49,49,49,49,49,49,49,49,49,49,49,49,49,49,49,49,49,49,154,100,100,101,102,103,102,103,154,154,154,154,154,154,154,154,154,154,154,154,154,154,154,154,154,154,154,47,154,154,4,5,6,154,154,
99,103,103,103,103,103,103,103,18,44,65,65,65,65,65,65,65,66,66,42,154,154,154,154,154,154,100,101,102,103,100,101,102,103,154,154,154,154,154,154,154,154,154,154,154,154,154,154,154,154,154,154,47,154,154,154,47,154,154,154,
99,103,103,103,103,103,103,103,154,48,49,49,49,49,49,49,49,49,49,45,154,154,154,154,154,154,100,101,102,103,100,101,102,103,154,154,154,154,154,154,154,154,154,154,154,154,154,154,154,154,154,154,154,154,154,154,154,154,154,154,
99,154,154,154,154,154,154,154,154,48,49,49,49,49,49,49,49,49,49,45,154,154,154,154,154,154,100,101,102,103,100,101,102,103,154,154,154,154,154,154,154,154,154,154,154,154,154,154,154,154,154,154,154,154,154,154,154,154,154,154,
99,154,154,154,154,154,154,154,154,48,49,49,49,49,49,49,49,49,49,45,154,154,154,154,154,154,100,101,102,103,100,101,102,103,154,154,154,154,154,154,154,154,154,154,154,154,154,154,154,154,154,154,154,154,154,154,154,154,154,154,
99,154,154,154,154,154,154,154,154,48,49,49,49,49,49,49,49,49,49,45,154,154,154,154,154,154,100,101,102,103,100,101,102,103,154,154,154,154,154,154,154,154,154,154,154,154,154,154,154,154,154,154,154,154,154,154,154,154,154,154,
99,154,154,154,154,154,154,154,154,48,49,49,49,49,49,49,49,49,49,45,154,154,154,154,154,154,100,101,102,103,100,101,102,103,154,154,154,154,154,154,154,154,154,154,154,154,154,154,154,154,154,154,154,154,154,154,154,154,154,154,
99,154,154,154,154,154,154,154,154,48,49,49,49,49,49,49,49,49,49,45,154,154,154,154,154,154,100,101,102,103,100,101,102,103,154,154,154,154,154,154,154,154,154,154,154,154,154,154,154,154,154,154,154,154,154,154,154,154,154,154,
99,154,154,154,154,154,154,154,154,48,49,49,49,49,49,49,49,49,49,45,154,154,154,154,154,154,100,101,102,103,100,101,102,103,154,154,154,154,154,154,154,154,154,154,154,154,154,154,154,154,154,154,154,154,154,154,154,154,154,154,
99,154,154,154,154,154,154,154,154,48,48,49,49,49,49,49,49,49,49,45,154,154,154,154,154,154,100,101,102,103,100,101,102,103,154,154,154,154,154,154,154,154,154,154,154,154,154,154,154,154,154,154,154,154,154,154,154,154,154,154,
99,154,154,154,65,65,66,65,66,67,27,28,28,28,49,27,28,28,28,23,154,154,154,154,154,154,100,101,102,103,100,101,102,103,154,154,154,154,154,154,154,154,154,154,154,154,154,154,154,154,154,154,154,154,154,154,154,154,154,154,
99,154,154,154,154,154,154,154,154,154,154,154,154,157,154,154,154,154,154,154,154,154,154,154,154,154,100,101,102,103,100,101,102,103,154,154,154,154,154,154,154,154,154,154,154,154,154,154,154,154,154,154,154,154,154,154,154,154,154,154,
33,154,154,154,154,154,154,154,154,65,66,66,66,66,49,154,154,154,65,66,42,154,154,154,154,154,100,101,102,103,100,101,102,103,154,154,154,154,154,154,154,154,154,154,154,154,154,154,154,154,154,154,154,154,154,154,154,154,154,154,
99,49,49,49,49,49,49,49,49,49,49,49,49,49,49,49,49,49,49,49,45,154,154,154,100,101,102,103,102,103,100,101,102,103,154,154,154,154,154,154,154,154,154,154,154,154,154,100,100,101,102,103,154,154,154,154,154,154,154,154,
99,49,49,49,49,49,49,49,49,49,49,49,49,49,49,49,49,49,49,49,45,154,154,100,101,102,103,103,103,103,100,101,102,103,154,154,154,154,154,154,154,154,154,154,154,154,154,100,100,101,102,100,101,102,103,154,154,154,154,154,
33,49,49,49,49,49,49,49,49,49,49,49,49,49,49,49,49,49,49,49,45,154,154,100,101,102,103,102,103,103,100,101,102,103,154,154,154,154,154,154,154,154,154,154,154,154,154,100,100,101,100,101,102,103,103,102,103,154,154,154,
33,49,49,49,49,49,49,49,49,49,49,49,49,49,49,49,49,49,49,49,45,100,100,101,102,103,101,102,103,103,100,101,102,103,154,154,154,154,154,154,154,154,154,154,154,154,154,100,101,100,100,101,102,103,103,102,103,154,154,154,
99,49,49,49,49,49,49,49,49,49,49,49,49,49,49,49,49,49,49,49,45,100,101,102,103,154,100,101,102,103,100,101,102,103,154,154,154,154,154,154,154,154,154,154,154,154,154,100,101,100,101,102,103,103,100,101,102,103,154,154,
33,49,49,49,49,49,49,49,49,49,49,49,49,49,49,49,49,49,49,49,45,101,102,103,102,103,100,101,102,103,100,101,102,103,100,101,102,103,100,100,100,100,100,100,101,102,103,100,101,100,101,102,103,103,100,101,102,103,100,101,
99,49,49,49,49,49,49,49,49,49,49,49,49,49,49,49,49,49,49,49,100,101,102,103,102,103,100,101,102,103,100,101,102,103,100,101,102,103,100,101,100,100,101,100,101,102,100,101,102,100,100,101,102,103,100,101,102,100,101,102,
99,49,49,49,49,49,49,49,49,49,49,49,49,49,49,49,49,49,49,49,100,101,102,103,102,103,100,101,102,103,100,101,102,100,101,100,100,101,100,101,100,100,101,100,101,102,100,101,102,100,100,101,102,103,100,101,102,103,101,102,
33,49,49,49,49,49,49,49,49,49,49,49,49,49,49,49,49,49,49,49,45,100,101,102,103,103,100,101,102,103,100,101,102,100,100,100,100,100,100,101,100,100,101,100,101,102,103,103,103,103,103,103,103,102,103,101,102,103,101,102,
99,49,49,49,49,49,49,49,49,49,27,27,27,28,102,27,27,27,28,49,45,100,101,102,103,102,100,101,43,103,100,101,102,100,101,102,103,100,100,101,102,103,103,103,103,103,100,101,100,101,102,100,101,102,103,101,102,103,102,103,
99,27,28,28,28,101,102,103,100,100,101,102,100,101,102,100,100,100,101,102,23,101,102,103,101,102,100,101,102,103,103,103,103,103,103,103,103,103,103,103,103,100,100,101,102,100,100,101,100,101,100,100,101,102,103,102,103,103,102,103,
99,101,102,100,100,101,102,103,100,100,101,102,100,101,100,100,100,100,101,100,101,102,103,100,101,102,100,101,102,103,100,101,100,101,47,44,66,66,66,66,66,66,66,66,66,66,66,66,66,66,66,66,66,66,66,66,66,66,66,66,
99,102,103,100,101,102,103,154,154,154,154,154,100,100,100,101,100,101,102,100,101,102,103,100,101,100,101,102,103,103,100,101,102,103,47,49,49,49,49,49,49,49,49,49,49,49,49,49,49,49,49,49,49,49,49,49,49,49,49,49,
99,102,102,102,81,82,102,154,154,154,154,154,154,154,154,154,100,101,102,100,101,102,103,100,101,100,101,102,103,103,100,101,102,103,47,49,49,49,49,49,49,49,49,49,49,49,49,49,49,49,49,49,49,49,49,49,49,49,49,49,
3221225596,119,120,121,120,121,120,40,154,154,154,154,154,154,154,154,100,100,100,101,102,103,100,101,102,100,101,102,103,103,100,101,102,103,47,49,49,49,49,49,49,49,49,49,49,49,49,49,49,49,49,49,49,49,49,49,49,49,49,49,
3221225596,3221225596,3221225596,32,124,3221225596,3221225596,33,154,154,154,154,154,154,154,154,154,100,100,101,102,103,100,101,100,101,102,103,102,103,103,101,102,103,47,49,49,49,49,49,49,49,49,49,49,49,49,49,49,49,49,49,49,49,49,49,49,49,49,49,
3221225596,3221225596,3221225596,3221225596,32,3221225596,3221225596,33,154,154,154,154,154,154,154,154,154,154,154,154,154,154,100,100,100,101,102,103,102,103,103,102,102,103,47,49,49,49,49,49,49,49,49,49,49,49,49,49,49,49,49,49,49,49,49,49,49,49,49,49,
3221225596,3221225596,3221225596,3221225596,32,3221225596,3221225596,33,154,154,154,154,154,154,154,154,154,154,154,154,154,154,100,101,100,101,102,103,102,103,103,102,102,103,47,49,49,49,49,49,49,49,49,49,49,49,49,49,49,49,49,49,49,26,102,102,102,102,102,102,
32,81,82,83,81,82,83,21,154,154,154,154,154,154,154,154,154,154,154,154,154,154,154,154,154,100,101,102,103,103,102,102,102,100,47,49,49,49,49,49,49,49,49,49,49,49,49,49,49,49,49,49,49,45,102,102,102,102,100,102,
99,154,154,154,154,154,154,154,154,154,154,154,154,154,154,154,154,154,154,154,154,154,154,154,154,100,101,102,103,103,102,102,102,100,47,49,49,49,49,49,49,49,49,49,49,49,49,49,49,49,49,49,49,45,102,102,102,102,102,154,
99,154,154,154,154,154,154,154,154,154,154,154,154,154,154,154,154,154,154,154,154,154,154,154,154,100,101,102,103,103,102,102,102,100,47,49,49,49,49,49,49,49,49,49,49,49,49,49,49,49,49,49,49,45,102,102,102,102,102,154,
99,154,154,154,154,154,154,154,154,154,154,154,154,154,154,154,154,154,154,154,154,154,154,154,154,100,101,102,103,103,102,102,103,100,47,49,49,49,49,49,49,49,49,49,49,49,49,49,49,49,49,49,49,45,102,102,102,102,102,154,
99,154,154,154,154,154,154,154,154,154,154,154,154,154,154,154,154,154,154,154,154,154,154,154,154,100,101,102,103,103,103,157,100,66,66,49,49,49,49,49,49,49,49,49,49,49,49,49,49,49,49,49,49,45,102,102,102,102,102,154,
99,154,154,154,154,154,154,154,154,154,154,154,154,154,154,154,154,154,154,154,154,154,154,154,154,100,101,102,103,103,47,154,49,49,49,49,49,49,49,49,49,49,49,49,49,49,49,49,49,49,49,49,49,64,102,102,102,102,154,102,
99,154,154,154,154,154,154,154,154,154,154,154,154,154,154,154,154,154,154,154,154,154,154,154,154,154,100,101,102,103,47,49,49,49,49,49,49,49,49,49,49,49,49,49,49,49,49,49,49,49,49,49,49,49,102,102,102,102,102,102,
99,154,154,154,154,154,154,154,154,154,154,154,154,154,154,154,154,154,154,154,154,154,154,154,154,154,100,101,102,103,47,49,49,49,49,49,49,49,49,49,49,49,49,49,49,49,49,49,49,49,49,49,49,49,49,45,102,102,102,102,
99,154,154,154,154,154,154,154,154,154,154,154,154,154,154,154,154,154,154,154,154,154,154,154,154,154,100,101,102,103,101,27,27,27,27,27,27,27,28,47,47,47,47,47,47,154,154,154,154,154,154,154,154,154,75,76,154,154,154,154,
99,154,154,154,154,154,154,154,154,154,154,154,154,154,154,154,154,154,154,154,154,154,154,154,154,154,100,101,102,103,101,102,103,154,154,154,154,154,154,47,47,47,47,47,154,154,154,154,154,154,154,154,154,154,154,154,154,154,154,154,
99,154,154,154,154,154,154,154,154,154,154,154,154,154,154,154,154,154,154,154,154,154,154,154,154,154,100,101,102,100,101,102,103,154,154,154,154,154,154,47,47,47,47,154,154,154,154,154,154,154,154,154,154,154,154,154,154,154,154,154,
118,154,154,154,154,154,154,154,154,154,154,154,154,154,154,154,154,154,154,154,154,154,154,154,154,154,100,101,100,100,100,101,102,103,154,154,154,154,154,47,47,47,154,154,154,154,154,154,154,154,154,154,154,154,154,154,154,154,154,154,
154,154,154,154,154,154,154,154,154,154,154,154,154,154,154,154,154,154,154,154,154,154,154,154,154,154,100,101,100,101,100,101,102,103,154,154,154,154,154,154,47,154,154,154,154,154,154,154,154,154,154,154,154,154,154,154,154,154,154,154,
154,154,154,154,154,154,154,154,154,154,154,154,154,154,154,154,154,154,154,154,154,154,154,154,154,154,100,101,100,101,100,100,101,102,103,154,154,154,154,154,154,154,154,154,154,154,154,154,154,154,154,154,154,154,154,154,154,154,154,154,
154,154,154,154,154,154,154,154,154,154,154,154,154,154,154,154,154,154,154,154,154,154,154,154,154,154,100,101,100,101,100,101,100,101,102,103,154,154,154,154,154,154,154,154,154,154,154,154,154,154,154,154,154,154,154,154,154,154,154,154,
154,154,154,154,154,154,154,154,154,154,154,154,154,154,154,154,154,154,154,154,154,154,154,154,154,154,100,100,101,102,100,101,102,100,101,102,103,154,154,154,154,154,154,154,154,154,154,154,154,154,154,154,154,154,154,154,154,154,154,154,
154,154,154,154,154,154,154,154,154,154,154,154,154,154,154,154,154,154,154,154,154,154,154,154,154,154,154,100,101,102,100,101,102,103,100,101,102,103,154,154,154,154,154,154,154,154,154,154,154,154,154,154,154,154,154,154,154,154,154,154,
154,154,154,154,154,154,154,154,154,154,154,154,154,154,154,154,154,154,154,154,154,154,154,154,154,154,154,100,101,102,100,101,102,103,103,100,101,102,103,154,154,154,154,154,154,154,154,154,154,154,154,154,154,154,154,154,154,154,154,154,
154,154,154,154,154,154,154,154,154,154,154,154,154,154,154,154,154,154,154,154,154,154,154,154,154,154,154,100,101,102,100,101,102,103,103,154,100,101,102,103,154,154,154,154,154,154,154,154,154,154,154,154,154,154,154,154,154,154,154,154,
154,154,154,154,154,154,154,154,154,154,154,154,154,154,154,154,154,154,154,154,154,154,154,154,154,154,100,101,102,103,100,101,102,103,103,154,154,100,101,102,103,154,154,154,154,154,154,154,154,154,154,154,154,154,154,154,154,154,154,154,
154,154,154,154,154,154,154,154,154,154,154,154,154,154,154,154,154,154,154,154,154,154,154,154,154,154,100,101,102,103,100,101,102,103,103,154,154,154,100,100,101,102,103,154,154,154,154,154,154,154,154,154,154,154,154,154,154,154,154,154
</data>
  </layer>
  <layer id="5" name="Piso" width="60" height="60" locked="1">
   <data encoding="csv">
134,135,136,137,138,135,136,137,138,135,136,137,138,135,238,239,138,135,136,257,258,259,260,265,266,265,266,0,115,97,97,117,0,0,135,136,137,138,135,136,137,138,135,136,137,138,135,136,137,138,135,136,137,138,135,136,137,135,136,137,
153,179,192,192,195,195,195,195,178,242,243,0,0,0,257,258,0,265,266,276,277,278,279,284,285,284,285,0,115,97,97,117,0,269,206,207,200,201,202,203,204,205,206,207,200,201,202,203,204,205,206,207,200,201,202,203,204,205,206,207,
153,158,290,291,291,291,291,292,153,261,262,0,0,0,276,277,0,284,285,0,0,0,265,266,0,0,236,0,115,97,97,117,0,269,225,226,219,220,221,222,223,224,225,226,219,220,221,222,223,224,225,226,219,220,221,222,223,224,225,226,
153,158,309,0,0,0,0,311,153,280,281,0,0,0,270,0,0,0,270,0,0,0,284,285,0,0,270,0,115,97,97,117,0,0,0,0,0,0,0,0,134,135,136,137,136,137,138,139,0,0,134,135,136,137,138,137,138,139,0,287,
153,158,309,381,97,381,49,311,153,0,0,96,97,98,289,96,97,98,289,96,97,98,0,96,97,98,289,0,115,97,97,117,0,238,239,240,241,242,243,0,153,59,59,59,59,59,59,158,0,0,153,78,78,154,154,154,78,158,0,269,
153,158,0,0,0,0,0,250,153,3221225666,3221225665,115,97,117,97,115,97,117,97,115,97,117,97,115,97,117,287,0,115,97,97,117,0,257,258,259,260,261,262,0,172,59,59,59,59,59,59,158,0,0,172,78,78,173,154,154,78,177,0,287,
153,158,644,645,646,0,0,294,191,3221225647,3221225646,195,195,195,195,195,195,195,195,195,195,195,195,195,195,195,178,330,291,291,291,291,330,276,277,278,279,280,281,0,172,59,59,78,59,59,157,177,0,0,172,77,78,78,98,567,568,177,0,231,
153,177,663,664,665,0,0,0,0,49,49,49,49,49,49,49,49,49,49,49,49,49,49,49,49,49,172,0,115,97,117,117,248,249,0,0,0,0,0,0,191,192,192,193,195,195,195,196,0,0,191,192,192,192,193,195,195,196,0,235,
153,160,265,266,265,266,265,266,135,136,135,136,135,136,135,136,135,135,135,136,135,270,270,139,49,49,178,0,115,97,117,117,267,268,330,329,329,329,329,330,0,0,256,116,291,291,291,291,291,291,0,0,0,256,97,0,0,0,265,266,
153,0,284,285,284,285,284,285,102,290,291,291,291,291,291,291,291,291,291,292,286,289,289,192,3221225666,3221225665,195,0,115,97,97,97,97,97,97,97,97,97,97,97,97,97,97,97,97,97,97,97,97,97,97,97,97,97,97,311,265,266,284,285,
153,0,0,0,0,0,0,265,266,309,49,235,49,235,49,235,49,235,49,311,0,0,0,0,0,0,0,0,115,97,97,97,97,97,97,97,97,116,97,97,97,97,97,97,97,97,97,97,97,97,97,97,97,97,117,311,284,285,269,250,
153,134,135,136,137,138,139,284,285,309,49,235,49,235,49,235,49,235,49,311,0,0,0,0,0,0,0,0,115,97,97,117,232,232,232,232,232,232,96,97,292,329,329,329,329,329,329,329,329,329,329,329,329,329,329,330,329,329,329,329,
153,153,0,0,0,0,158,265,266,309,49,235,49,235,49,235,49,235,49,311,0,0,0,0,0,0,0,0,115,97,97,117,232,232,232,232,232,232,96,97,134,135,136,137,136,137,138,139,0,0,0,134,135,135,136,137,136,137,138,139,
153,172,0,0,0,0,177,284,285,309,49,235,49,235,49,235,49,235,49,311,0,0,0,0,0,0,0,0,115,97,97,117,232,232,232,232,232,232,96,97,153,415,416,248,249,605,606,158,0,0,0,153,0,0,0,0,0,0,0,158,
153,153,0,0,0,0,158,265,266,309,49,235,49,235,49,235,49,235,49,311,0,0,0,0,0,0,0,0,115,97,97,117,232,232,232,232,232,232,96,97,172,434,435,267,268,512,513,158,0,0,0,172,0,0,0,0,0,0,0,177,
153,153,0,175,0,0,158,284,285,309,49,235,49,235,49,235,49,235,49,311,0,0,0,0,0,0,0,0,115,97,97,117,232,232,232,232,232,232,96,97,153,250,269,174,175,531,532,177,0,0,0,172,0,0,343,344,0,0,0,158,
153,172,173,174,157,157,177,265,266,309,49,235,49,235,49,235,49,235,49,311,0,0,0,0,0,0,0,0,115,97,97,117,232,232,232,232,232,232,96,97,191,192,192,193,194,195,195,196,0,0,0,172,0,0,362,363,174,175,0,177,
153,191,192,193,195,195,196,284,285,309,49,235,49,235,49,235,49,235,49,311,0,0,0,0,0,0,0,0,115,97,97,117,232,232,232,232,232,232,96,97,233,286,286,97,97,286,0,0,275,0,0,191,192,192,192,192,193,194,195,196,
153,0,0,116,0,0,0,0,0,328,329,329,329,329,49,329,329,329,329,330,0,0,0,0,0,0,0,0,115,97,97,117,232,232,232,232,232,232,96,97,97,97,97,97,97,97,97,97,97,97,97,97,97,97,97,97,97,97,0,0,
153,0,0,116,116,116,116,116,116,116,116,116,97,97,97,116,116,116,116,116,116,116,116,116,116,116,116,116,115,97,97,115,97,97,97,97,97,97,97,97,116,116,116,116,116,116,116,116,116,116,116,116,116,116,116,116,116,116,0,0,
172,290,291,291,291,66,291,291,291,292,291,291,291,291,66,291,291,291,291,292,42,0,0,0,0,0,0,0,0,97,97,115,0,0,0,0,0,0,290,291,244,245,291,291,291,291,291,292,97,97,292,291,291,291,292,291,291,291,291,292,
153,309,269,250,269,49,269,250,269,311,233,0,233,0,0,233,0,233,0,311,45,0,0,0,0,0,0,0,0,97,97,115,0,0,0,0,0,0,309,269,263,264,0,0,265,266,0,311,97,97,311,250,0,2684354810,311,231,0,0,0,311,
153,309,269,250,269,49,269,250,269,311,233,0,233,0,0,233,0,233,0,311,45,0,0,0,0,0,0,0,0,97,97,115,0,0,0,0,0,0,309,269,282,283,0,0,284,285,0,311,97,97,311,250,0,0,311,231,0,0,0,311,
153,309,269,250,269,49,269,250,269,311,233,0,233,0,0,233,0,233,0,311,45,0,0,0,0,0,0,0,0,97,97,115,0,0,0,0,0,0,309,269,0,0,0,0,0,0,0,311,97,97,311,250,0,0,311,231,0,0,0,311,
153,309,269,250,269,49,269,250,269,311,233,0,233,0,0,233,0,233,0,311,45,0,0,0,0,0,0,0,0,97,97,115,0,0,0,0,0,0,309,269,0,0,97,0,0,366,367,311,97,97,311,381,97,381,311,231,0,97,0,311,
153,309,269,250,269,49,269,250,269,0,233,0,233,0,0,233,0,233,0,49,45,0,0,0,0,0,0,0,0,97,97,115,0,0,0,0,0,0,328,329,329,329,97,331,329,329,329,330,97,97,330,313,97,98,330,329,313,97,291,330,
153,309,269,250,269,49,269,250,269,311,233,0,233,0,0,233,0,233,0,311,45,0,0,0,0,0,0,0,0,97,97,115,0,0,0,0,0,0,97,97,97,97,97,97,97,97,97,97,97,116,116,116,116,116,116,116,116,116,97,116,
153,309,269,250,269,49,269,250,269,311,233,0,233,0,0,233,0,233,0,311,45,0,0,0,0,0,0,0,0,97,97,115,0,0,0,0,0,0,97,97,97,97,97,97,97,97,97,97,97,116,116,116,116,116,116,116,116,116,116,116,
153,309,269,250,269,49,269,250,269,311,233,0,233,0,0,233,0,233,0,311,45,0,0,0,0,0,0,0,0,97,97,115,0,0,0,0,0,265,266,0,265,266,0,265,266,0,0,265,266,265,266,0,0,265,266,0,265,266,265,266,
153,309,269,250,269,49,269,250,269,311,233,0,233,0,0,233,0,233,0,311,45,0,0,0,0,0,0,0,0,97,97,115,0,0,0,0,0,284,285,0,284,285,0,284,285,0,0,284,285,284,285,0,0,284,285,0,284,285,284,285,
153,328,329,329,329,49,329,329,329,330,329,329,329,329,49,329,329,329,329,330,45,0,0,0,0,0,0,0,0,97,97,97,97,97,97,97,97,97,97,97,97,97,97,97,97,97,97,97,97,97,97,97,97,97,97,97,97,97,97,97,
153,0,0,0,29,49,26,27,27,27,27,27,27,27,27,27,27,27,27,28,0,0,0,0,0,0,0,0,0,97,97,0,0,0,270,0,270,270,270,270,270,270,270,270,270,270,270,270,270,270,270,270,270,270,270,270,270,270,270,270,
153,0,0,0,25,28,23,0,0,0,0,0,0,0,0,0,0,0,0,0,0,0,0,0,0,0,0,0,0,97,97,0,0,0,270,44,0,0,0,0,0,0,0,0,0,0,0,0,0,0,0,0,0,0,0,0,0,0,0,0,
153,0,0,0,5,5,5,47,47,47,47,0,0,0,0,0,0,0,0,0,0,0,0,0,0,0,0,0,0,97,97,0,0,0,289,158,0,0,0,0,0,0,0,0,0,0,0,0,0,0,0,0,0,0,0,0,0,0,0,0,
191,157,0,0,68,69,0,0,0,0,0,0,0,0,0,0,0,0,0,0,0,0,0,0,0,0,0,0,0,97,97,0,0,0,270,177,0,0,0,0,0,0,0,0,0,0,0,0,0,0,0,0,0,0,0,0,0,0,0,0,
118,0,0,0,87,88,0,0,0,0,0,0,0,0,0,0,0,0,0,0,0,0,0,0,0,0,0,0,0,97,97,0,0,0,289,177,0,0,0,0,0,0,0,0,0,0,0,0,0,0,0,0,0,0,0,0,0,0,0,0,
0,0,0,0,106,107,0,0,0,0,0,0,0,0,0,0,0,0,0,0,0,0,0,0,0,0,0,0,0,97,97,0,0,0,270,158,0,0,0,0,0,0,0,0,0,0,0,0,0,0,0,0,0,0,0,0,0,0,0,0,
0,0,0,0,87,88,0,0,0,0,0,0,0,0,0,0,0,0,0,0,0,0,0,0,0,0,0,0,0,97,97,0,0,0,289,177,0,0,0,0,0,0,0,0,0,0,0,0,0,0,0,0,0,134,135,135,135,136,137,138,
0,0,0,0,87,88,0,0,0,0,0,0,0,0,0,0,0,0,0,0,0,0,0,0,0,0,0,0,0,97,97,0,0,0,270,158,0,0,0,0,0,0,0,0,0,0,0,0,0,0,0,0,0,153,292,291,291,291,291,291,
80,0,0,0,106,107,0,0,0,0,0,0,0,0,0,0,0,0,0,0,0,0,0,0,0,0,0,0,0,97,97,0,0,0,289,177,0,0,0,0,0,0,0,0,0,0,0,0,0,0,0,0,0,153,311,0,0,0,0,0,
153,157,0,0,125,126,0,0,0,0,0,0,0,0,0,0,0,0,0,0,0,0,0,0,0,0,0,0,0,97,97,0,44,42,270,158,0,0,0,0,0,0,0,0,0,0,0,0,0,0,0,0,0,172,311,238,239,359,360,361,
153,0,0,0,144,145,0,0,0,0,0,0,0,0,0,0,0,0,0,0,0,0,0,0,0,0,0,0,0,97,97,158,48,45,289,177,0,0,0,0,0,0,0,0,0,0,0,0,0,0,0,0,0,153,311,257,258,378,379,380,
153,0,0,0,0,0,0,0,0,0,0,0,0,0,0,0,0,0,0,0,0,0,0,0,0,0,0,0,0,97,97,177,48,45,270,158,0,0,0,0,0,0,0,0,0,0,0,0,0,0,0,0,0,172,311,276,277,397,398,399,
153,0,0,0,0,0,0,0,0,0,0,0,0,0,0,0,0,0,0,0,0,0,0,0,0,0,0,0,0,97,97,158,174,175,289,177,0,0,0,0,0,0,0,0,0,0,0,0,0,0,0,0,0,172,311,350,350,0,311,0,
153,0,0,0,0,0,0,0,0,0,0,0,0,0,0,0,0,0,0,0,0,0,0,0,0,0,0,0,0,97,97,191,193,194,195,196,0,0,0,0,0,0,0,0,0,0,0,0,0,0,0,0,0,172,330,291,313,0,311,270,
153,0,0,0,0,0,0,0,0,0,0,0,0,0,0,0,0,0,0,0,0,0,0,0,0,0,0,0,0,97,97,48,96,116,116,116,116,116,98,49,0,0,0,0,0,0,0,0,0,0,0,0,0,153,155,156,0,0,311,289,
153,0,0,0,0,0,0,0,0,0,0,0,0,0,0,0,0,0,0,0,0,0,0,0,0,0,0,0,0,97,97,48,115,116,117,97,97,97,134,292,291,291,291,265,266,0,0,0,0,0,0,0,0,172,174,175,329,244,245,291,
153,243,242,243,0,0,0,357,358,359,360,361,0,0,0,357,358,359,360,361,0,0,357,358,359,360,361,0,0,97,97,25,291,291,291,291,291,291,291,311,270,0,265,266,285,74,75,75,75,75,75,75,75,191,193,194,195,263,264,266,
153,262,261,262,0,0,0,376,377,378,379,380,0,0,0,376,377,378,379,380,0,0,376,377,378,379,380,0,0,97,97,311,0,0,0,0,0,0,0,311,289,0,284,285,74,75,75,75,75,75,75,75,75,75,75,75,76,286,283,285,
172,281,280,281,0,0,0,395,396,397,398,329,329,329,329,395,396,397,398,399,329,329,395,396,397,398,399,292,0,97,97,311,0,0,0,0,0,0,0,311,265,266,0,74,75,75,75,75,75,75,75,75,75,75,75,75,75,76,286,270,
191,41,122,40,0,550,551,41,121,122,40,0,41,120,121,40,0,0,41,120,121,122,119,120,121,122,40,311,0,97,97,311,0,0,0,0,59,0,0,311,284,285,74,75,75,75,75,75,75,75,75,75,75,75,75,75,75,75,76,289,
1610612860,1610612860,1610612860,99,0,569,570,104,32,32,99,0,104,105,105,99,265,266,31,124,124,124,124,105,124,105,33,311,0,97,97,330,291,329,329,0,59,0,0,311,0,74,75,75,75,75,75,75,75,75,75,75,75,75,75,75,75,75,75,76,
1610612860,1610612860,1610612860,99,588,589,0,104,32,32,118,40,104,105,105,99,284,285,31,105,124,124,124,124,105,124,99,311,0,97,97,59,59,59,59,59,59,0,0,311,93,94,94,94,94,94,94,94,94,94,94,94,94,94,94,94,94,94,94,95,
1610612860,1610612860,32,99,607,608,551,104,32,32,105,105,80,82,85,99,41,40,31,105,105,124,124,124,124,105,99,311,0,97,97,0,0,0,0,0,0,0,0,311,74,75,75,75,75,75,75,75,75,75,75,75,75,75,75,75,75,75,75,76,
1610612860,32,32,99,0,569,570,104,32,32,105,105,99,101,104,118,121,121,123,105,105,105,124,124,124,124,99,311,0,97,97,0,0,0,0,0,0,0,0,311,93,94,94,94,94,94,94,94,94,94,94,94,94,94,94,94,94,94,94,95,
32,32,32,99,644,645,646,104,32,32,32,32,118,120,123,32,32,32,32,32,32,32,32,124,124,124,99,311,0,97,97,292,291,291,291,291,291,291,291,330,112,113,113,113,113,113,113,113,113,113,113,113,113,113,113,113,113,113,113,114,
32,32,32,99,663,570,665,104,32,32,32,32,32,80,81,82,83,84,85,32,32,32,32,32,124,124,99,311,0,97,97,311,41,121,122,122,122,122,122,122,131,132,132,132,132,132,132,132,132,132,132,132,132,132,132,132,132,132,132,133,
32,32,32,118,119,121,122,123,32,32,32,32,32,99,100,101,102,103,104,32,32,32,80,82,85,124,99,311,0,97,97,311,31,32,105,3221225596,3221225596,3221225596,105,105,32,32,32,32,32,32,32,32,32,32,32,32,32,32,32,32,32,32,2684354684,2684354684,
32,32,32,32,32,32,32,32,32,32,32,32,32,118,119,120,121,122,123,32,32,32,99,101,104,32,99,311,0,97,97,311,104,32,105,105,3221225596,3221225596,3221225596,105,32,32,32,32,32,32,32,32,32,32,32,32,32,32,32,32,32,2684354684,2684354684,2684354684,
32,32,32,32,32,32,32,32,32,32,32,32,32,32,32,32,32,32,32,32,32,32,118,120,123,32,99,311,0,97,97,311,31,32,105,105,105,3221225596,3221225596,3221225596,32,32,32,32,32,32,32,32,32,32,32,32,32,32,32,32,2684354684,2684354684,2684354684,32
</data>
  </layer>
 </group>
 <layer id="6" name="casas" width="60" height="60" locked="1">
  <data encoding="csv">
0,0,0,0,0,0,0,0,0,0,0,0,0,0,0,0,0,0,0,0,0,0,0,0,0,0,0,0,0,0,0,0,0,0,0,0,0,0,0,0,0,0,0,0,0,0,0,0,0,0,0,0,0,0,0,0,0,0,0,0,
0,0,0,552,553,554,0,0,0,0,0,486,487,488,0,555,556,557,0,710,711,712,713,400,401,402,0,0,0,0,0,0,0,0,0,0,0,0,0,0,0,0,0,0,0,0,0,0,0,0,0,0,0,0,0,0,0,0,0,0,
0,0,0,571,572,573,0,0,0,0,0,505,506,507,0,574,575,576,0,729,730,731,732,419,420,421,0,0,0,0,0,0,0,0,0,0,0,0,0,0,0,0,0,0,0,0,0,0,0,0,0,0,0,0,0,0,0,0,0,0,
0,0,0,590,591,592,0,0,0,0,0,524,525,526,0,593,594,595,0,748,749,750,751,438,439,440,0,0,0,0,0,0,0,0,0,0,0,0,0,0,0,481,482,483,484,485,0,0,0,0,0,0,714,715,716,717,718,0,0,0,
0,0,0,609,610,611,0,0,0,0,0,543,544,545,0,612,613,614,0,767,768,769,770,457,458,459,0,0,0,0,0,0,0,0,0,0,0,0,0,0,0,500,501,502,503,504,0,0,0,0,0,0,733,734,735,736,737,0,0,0,
0,0,0,0,0,0,0,0,0,0,0,0,0,0,0,0,0,0,0,0,0,0,0,0,0,0,0,0,0,0,0,0,0,0,0,0,0,0,0,0,0,519,520,521,522,523,0,0,0,0,0,0,752,753,754,755,756,0,0,0,
0,0,0,0,0,0,0,0,0,0,0,0,0,0,0,0,0,0,0,0,0,0,0,0,0,0,0,0,0,0,0,0,0,0,0,0,0,0,0,0,0,538,539,540,541,542,0,0,0,0,0,0,771,772,773,774,775,0,0,0,
0,0,0,0,0,0,0,0,0,0,0,0,0,0,0,0,0,0,0,0,0,0,0,0,0,0,0,0,0,0,0,0,0,0,0,0,0,0,0,0,0,0,0,0,0,0,0,0,0,0,0,0,0,0,0,0,0,0,0,0,
0,0,0,0,0,0,0,0,0,0,0,0,0,0,0,0,0,0,0,0,0,0,0,0,0,0,0,0,0,0,0,0,0,0,0,0,0,0,0,0,0,0,0,0,0,0,0,0,0,0,0,0,0,0,0,0,0,0,0,0,
0,0,0,0,0,0,0,0,0,0,0,0,0,0,0,0,0,0,0,0,0,0,0,0,0,0,0,0,0,0,0,0,0,0,0,0,0,0,0,0,0,0,0,0,0,0,0,0,0,0,0,0,0,0,0,0,0,0,0,0,
0,0,0,0,0,0,0,0,0,0,0,0,0,0,0,0,0,0,0,0,0,0,0,0,0,0,0,0,0,0,0,0,0,0,0,0,0,0,0,0,0,0,0,0,0,0,0,0,0,0,0,0,0,0,0,0,0,0,0,0,
0,0,0,0,0,0,0,0,0,0,0,0,0,0,0,0,0,0,0,0,0,0,0,0,0,0,0,0,0,0,0,0,0,0,0,0,0,0,0,0,0,0,0,0,0,0,0,0,0,0,0,0,0,0,0,0,0,0,0,0,
0,0,486,487,488,0,0,0,0,0,0,0,0,0,0,0,0,0,0,0,0,0,0,0,0,0,0,0,0,0,0,0,0,0,0,0,0,0,0,0,0,0,0,0,0,0,0,0,0,0,0,0,0,0,0,0,0,0,0,0,
0,0,505,506,507,0,0,0,0,0,0,0,0,0,0,0,0,0,0,0,0,0,0,0,0,0,0,0,0,0,0,0,0,0,0,0,0,0,0,0,0,0,0,0,0,0,0,0,0,0,0,0,415,416,0,0,0,512,513,0,
0,0,524,525,526,0,0,0,0,0,0,0,0,0,0,0,0,0,0,0,0,0,0,0,0,0,0,0,0,0,0,0,0,0,0,0,0,0,0,0,0,0,0,0,0,0,0,0,0,0,0,0,434,435,644,645,646,531,532,0,
0,0,543,544,545,0,0,0,0,0,0,0,0,0,0,0,0,0,0,0,0,0,0,0,0,0,0,0,0,0,0,0,0,0,0,0,0,0,0,0,0,0,0,0,0,0,0,0,0,0,0,0,453,454,663,0,665,0,0,0,
0,0,0,0,0,0,0,0,0,0,0,0,0,0,0,0,0,0,0,0,0,0,0,0,0,0,0,0,0,0,0,0,0,0,0,0,0,0,0,0,0,0,0,0,0,0,0,0,0,0,0,0,472,473,0,0,0,0,235,0,
0,0,0,0,0,0,0,0,0,0,0,0,0,0,0,0,0,0,0,0,0,0,0,0,0,0,0,0,0,0,0,0,0,0,0,0,0,0,0,0,0,0,0,0,0,0,0,0,0,0,0,0,0,0,0,0,0,0,0,0,
0,0,0,0,0,0,0,0,0,0,0,0,0,0,0,0,0,0,0,0,0,0,0,0,0,0,0,0,0,0,0,0,0,0,0,0,0,0,0,0,0,0,0,0,0,0,0,0,0,0,0,0,0,0,0,0,0,0,0,0,
0,0,0,0,0,0,0,0,0,0,0,0,0,0,0,0,0,0,0,0,0,0,0,0,0,0,0,0,0,0,0,0,0,0,0,0,0,0,0,0,0,0,0,0,0,0,0,0,0,0,0,0,0,0,0,0,0,0,0,0,
0,0,0,0,0,0,0,0,0,0,0,0,0,0,0,0,0,0,0,0,0,0,0,0,0,0,0,0,0,0,0,0,0,0,0,0,0,0,0,0,0,0,0,0,0,0,0,0,0,0,0,0,0,0,0,0,0,0,0,0,
0,0,0,0,0,0,0,0,0,0,0,0,0,0,0,0,0,0,0,0,0,0,0,0,0,0,0,0,0,0,0,0,0,0,0,0,0,0,0,0,785,786,787,788,789,0,0,0,0,0,0,486,487,488,0,0,489,490,491,0,
0,0,0,0,0,0,0,0,0,0,0,0,0,0,0,0,0,0,0,0,0,0,0,0,0,0,0,0,0,0,0,0,0,0,0,0,0,0,0,0,804,805,806,807,808,0,0,0,0,0,0,505,506,507,0,0,508,509,510,0,
0,0,0,0,0,0,0,0,0,0,0,0,0,0,0,0,0,0,0,0,0,0,0,0,0,0,0,0,0,0,0,0,0,0,0,0,0,0,0,0,823,824,825,826,827,0,0,0,0,0,0,524,525,526,0,0,527,528,529,0,
0,0,0,0,0,0,0,0,0,0,0,0,0,0,0,0,0,0,0,0,0,0,0,0,0,0,0,0,0,0,0,0,0,0,0,0,0,0,0,0,842,843,844,845,846,0,0,0,0,0,0,543,544,545,0,0,546,547,548,0,
0,0,0,0,0,0,0,0,0,0,0,0,0,0,0,0,0,0,0,0,0,0,0,0,0,0,0,0,0,0,0,0,0,0,0,0,0,0,0,0,0,0,0,0,0,0,0,0,0,0,0,0,0,0,0,0,0,0,0,0,
0,0,0,0,0,0,0,0,0,0,0,0,0,0,0,0,0,0,0,0,0,0,0,0,0,0,0,0,0,0,0,0,0,0,0,0,0,0,0,0,0,0,0,0,0,0,0,0,0,0,0,0,0,0,0,0,0,0,0,0,
0,0,0,0,0,0,0,0,0,0,0,0,0,0,0,0,0,0,0,0,0,0,0,0,0,0,0,0,0,0,0,0,0,0,0,0,0,0,0,0,0,0,0,0,0,0,0,0,0,0,0,0,0,0,0,0,0,0,0,0,
0,0,0,0,0,0,0,0,0,0,0,0,0,0,0,0,0,0,0,0,0,0,0,0,0,0,0,0,0,0,0,0,0,0,0,0,0,0,0,0,0,0,0,0,0,0,0,0,0,0,0,0,0,0,0,0,0,0,0,0,
0,0,0,0,0,0,0,0,0,0,0,0,0,0,0,0,0,0,0,0,0,0,0,0,0,0,0,0,0,0,0,0,0,0,0,0,0,0,0,0,0,0,0,0,0,0,0,0,0,0,0,0,0,0,0,0,0,0,0,0,
0,0,0,0,0,0,0,0,0,0,0,0,0,0,0,0,0,0,0,0,0,0,0,0,0,0,0,0,0,0,0,0,0,0,0,0,0,0,0,0,0,0,0,0,0,0,0,0,0,0,0,0,0,0,0,0,0,0,0,0,
0,0,0,0,0,0,0,0,0,0,0,0,0,0,0,0,0,0,0,0,0,0,0,0,0,0,0,0,0,0,0,0,0,0,0,0,0,0,0,0,0,0,0,0,0,0,0,0,0,0,0,0,0,0,0,0,0,0,0,0,
0,0,0,0,0,0,0,0,0,0,0,0,0,0,0,0,0,0,0,0,0,0,0,0,0,0,0,0,0,0,0,0,0,0,0,0,0,0,0,0,0,0,0,0,0,0,0,0,0,0,0,0,0,0,0,0,0,0,0,0,
0,0,0,0,0,0,0,0,0,0,0,0,0,0,0,0,0,0,0,0,0,0,0,0,0,0,0,0,0,0,0,0,0,0,0,0,0,0,0,0,0,0,0,0,0,0,0,0,0,0,0,0,0,0,0,0,0,0,0,0,
0,0,0,0,0,0,0,0,0,0,0,0,0,0,0,0,0,0,0,0,0,0,0,0,0,0,0,0,0,0,0,0,0,0,0,0,0,0,0,0,0,0,0,0,0,0,0,0,0,0,0,0,0,0,0,0,0,0,0,0,
0,0,0,0,0,0,0,0,0,0,0,0,0,0,0,0,0,0,0,0,0,0,0,0,0,0,0,0,0,0,0,0,0,0,0,0,0,0,0,0,0,0,0,0,0,0,0,0,0,0,0,0,0,0,0,0,0,0,0,0,
0,0,0,0,0,0,0,0,0,0,0,0,0,0,0,0,0,0,0,0,0,0,0,0,0,0,0,0,0,0,0,0,0,0,0,0,0,0,0,0,0,0,0,0,0,0,0,0,0,0,0,0,0,0,0,0,0,0,0,0,
0,0,0,0,0,0,0,0,0,0,0,0,0,0,0,0,0,0,0,0,0,0,0,0,0,0,0,0,0,0,0,0,0,0,0,0,0,0,0,0,0,0,0,0,0,0,0,0,0,0,0,0,0,0,0,0,0,0,0,0,
0,0,0,0,0,0,0,0,0,0,0,0,0,0,0,0,0,0,0,0,0,0,0,0,0,0,0,0,0,0,0,0,0,0,0,0,0,0,0,0,0,0,0,0,0,0,0,0,0,0,0,0,0,0,0,0,0,0,0,0,
0,0,0,0,0,0,0,0,0,0,0,0,0,0,0,0,0,0,0,0,0,0,0,0,0,0,0,0,0,0,0,0,0,0,0,0,0,0,0,0,0,0,0,0,0,0,0,0,0,0,0,0,0,0,0,0,0,0,0,0,
0,0,0,0,0,0,0,0,0,0,0,0,0,0,0,0,0,0,0,0,0,0,0,0,0,0,0,0,0,0,0,0,0,0,0,0,0,0,0,0,0,0,0,0,0,0,0,0,0,0,0,0,0,0,0,0,704,705,706,0,
0,0,0,0,0,0,0,0,0,0,0,0,0,0,0,0,0,0,0,0,0,0,0,0,0,0,0,0,0,0,0,0,0,0,0,0,0,0,0,0,0,0,0,0,0,0,0,0,0,0,0,0,0,0,0,0,723,724,725,0,
0,0,0,0,0,0,0,0,0,0,0,0,0,0,0,0,0,0,0,0,0,0,0,0,0,0,0,0,0,0,0,0,0,0,0,0,0,0,0,0,0,0,0,0,0,0,0,0,0,0,0,0,0,0,0,0,742,743,744,0,
0,0,0,0,0,0,0,0,0,0,0,0,0,0,0,0,0,0,0,0,0,0,0,0,0,0,0,0,0,0,0,0,0,0,0,0,0,0,0,0,0,0,0,0,0,0,0,0,0,0,0,0,0,0,0,0,761,762,763,0,
0,0,0,0,0,0,0,0,0,0,0,0,0,0,0,0,0,0,0,0,0,0,0,0,0,0,0,0,0,0,0,0,0,0,0,0,0,0,0,0,0,0,0,0,0,0,0,0,0,0,0,0,0,0,0,0,0,0,0,0,
0,0,0,0,0,0,0,0,0,0,0,0,0,0,0,0,0,0,0,0,0,0,0,0,0,0,0,0,0,0,0,0,0,0,0,0,0,0,0,0,0,0,0,0,0,0,0,0,0,0,0,0,0,0,0,0,0,0,0,0,
0,0,0,0,0,0,0,0,0,0,0,0,0,0,0,0,0,0,0,0,0,0,0,0,0,0,0,0,0,0,0,0,0,0,0,0,0,0,0,0,0,0,0,0,0,0,0,0,0,0,0,0,0,0,0,0,0,0,0,0,
0,0,0,0,0,0,0,0,0,0,0,0,0,0,0,0,0,0,0,0,0,0,0,0,0,0,0,0,0,0,0,0,0,0,714,715,716,717,718,0,0,0,0,0,0,0,0,0,0,0,0,0,0,0,0,0,0,0,0,0,
0,0,0,0,0,0,0,0,0,0,0,0,0,0,0,0,0,0,0,0,0,0,0,0,0,0,0,0,0,0,0,0,0,0,733,734,735,736,737,0,0,0,0,0,0,0,0,0,0,0,0,0,0,0,0,0,0,0,0,0,
0,0,0,0,0,0,0,0,0,0,0,0,0,0,0,0,0,0,0,0,0,0,0,0,0,0,0,0,0,0,0,0,0,0,752,753,754,755,756,0,0,0,0,0,0,0,0,0,0,0,0,0,0,0,0,0,0,0,0,0,
0,0,0,0,0,0,0,0,0,0,0,0,0,0,0,0,0,0,0,0,0,0,0,0,0,0,0,0,0,0,0,0,0,0,771,772,773,774,775,0,0,0,0,0,0,0,0,0,0,0,0,0,0,0,0,0,0,0,0,0,
0,0,0,0,0,0,0,0,0,0,0,0,0,0,0,0,0,0,0,0,0,0,0,0,0,0,0,0,0,0,0,0,0,0,0,0,0,0,0,0,0,0,0,0,0,0,0,0,0,0,0,0,0,0,0,0,0,0,0,0,
0,0,0,0,0,0,0,0,0,0,0,0,0,0,0,0,0,0,0,0,0,0,0,0,0,0,0,0,0,0,0,0,0,0,0,0,0,0,0,0,0,0,0,0,0,0,0,0,0,0,0,0,0,0,0,0,0,0,0,0,
0,0,0,0,0,0,0,0,0,0,0,0,0,0,0,0,0,0,0,0,0,0,0,0,0,0,0,0,0,0,0,0,0,0,0,0,0,0,0,0,0,0,0,0,0,0,0,0,0,0,0,0,0,0,0,0,0,0,0,0,
0,0,0,0,0,0,0,0,0,0,0,0,0,0,0,0,0,0,0,0,0,0,0,0,0,0,0,0,0,0,0,0,0,0,0,0,0,0,0,0,0,0,0,0,0,0,0,0,0,0,0,0,0,0,0,0,0,0,0,0,
0,0,0,0,0,0,0,0,0,0,0,0,0,0,0,0,0,0,0,0,0,0,0,0,0,0,0,0,0,0,0,0,0,0,0,0,0,0,0,0,0,0,0,0,0,0,0,0,0,0,0,0,0,0,0,0,0,0,0,0,
0,0,0,0,0,0,0,0,0,0,0,0,0,0,0,0,0,0,0,0,0,0,0,0,0,0,0,0,0,0,0,0,0,0,0,0,0,0,0,0,0,0,0,0,0,0,0,0,0,0,0,0,0,0,0,0,0,0,0,0,
0,0,0,0,0,0,0,0,0,0,0,0,0,0,0,0,0,0,0,0,0,0,0,0,0,0,0,0,0,0,0,0,0,0,0,0,0,0,0,0,0,0,0,0,0,0,0,0,0,0,0,0,0,0,0,0,0,0,0,0,
0,0,0,0,0,0,0,0,0,0,0,0,0,0,0,0,0,0,0,0,0,0,0,0,0,0,0,0,0,0,0,0,0,0,0,0,0,0,0,0,0,0,0,0,0,0,0,0,0,0,0,0,0,0,0,0,0,0,0,0,
0,0,0,0,0,0,0,0,0,0,0,0,0,0,0,0,0,0,0,0,0,0,0,0,0,0,0,0,0,0,0,0,0,0,0,0,0,0,0,0,0,0,0,0,0,0,0,0,0,0,0,0,0,0,0,0,0,0,0,0
</data>
 </layer>
 <objectgroup color="#ff0000" id="8" name="Colisao" opacity="0.5">
  <object id="8" x="1036.67" y="267" width="245" height="15"/>
  <object id="10" x="1410.33" y="263" width="188.333" height="18.6667"/>
  <object id="11" x="1282.67" y="364" width="462.667" height="12"/>
  <object id="12" x="1746.5" y="364.5" width="172.5" height="12"/>
  <object id="13" x="1773.5" y="287.75" width="4.75" height="77.5"/>
  <object id="15" x="1218.33" y="810.333" width="122.667" height="14.6667"/>
  <object id="16" x="1230.33" y="667" width="3.66667" height="140.667"/>
  <object id="17" x="1216" y="653" width="320" height="11"/>
  <object id="19" x="1518" y="666" width="4" height="146"/>
  <object id="20" x="1412" y="814" width="120.333" height="11.3333"/>
  <object id="22" x="1614" y="667" width="3.5" height="146"/>
  <object id="23" x="1604.25" y="813.5" width="24.75" height="12"/>
  <object id="24" x="1604.25" y="655" width="162" height="11"/>
  <object id="25" x="1768" y="652.75" width="149" height="11"/>
  <object id="26" x="1742.57" y="667" width="3" height="146"/>
  <object id="28" x="1732.29" y="814.571" width="55.4286" height="10.5714"/>
  <object id="29" x="1859" y="814" width="60" height="10"/>
  <object id="30" x="1902.57" y="666.143" width="11" height="146"/>
  <object id="31" x="1038.5" y="0.5" width="242" height="214.5"/>
  <object id="32" x="1270" y="0" width="307" height="95"/>
  <object id="33" x="1579" y="0" width="342" height="95"/>
  <object id="37" x="1280.25" y="226.5" width="101" height="26.25"/>
  <object id="38" x="1259.75" y="210.25" width="32.25" height="29"/>
  <object id="39" x="1260" y="237.636" width="20.3636" height="27"/>
  <object id="40" x="1279.5" y="105.75" width="90.25" height="118.75"/>
  <object id="41" x="1410.75" y="105.75" width="66.25" height="121"/>
  <object id="42" x="1412" y="228" width="60" height="34"/>
  <object id="43" x="1474.67" y="106.333" width="51.6667" height="156.667"/>
  <object id="44" x="1568.33" y="106.667" width="101.667" height="145.333"/>
  <object id="45" x="1761" y="206" width="160" height="47"/>
  <object id="47" x="1779.67" y="96" width="72.6667" height="109"/>
  <object id="49" x="1671.09" y="224.364" width="60.7273" height="28.4545"/>
  <object id="50" x="1568.73" y="253.273" width="30.5455" height="8.0909"/>
  <object id="52" x="1781" y="289.818" width="138" height="8.72727"/>
  <object id="53" x="1008" y="1803" width="911" height="120"/>
  <object id="54" x="994.667" y="1780.67" width="283.333" height="20"/>
  <object id="57" x="1714" y="1201" width="207" height="13"/>
  <object id="58" x="1870" y="1298" width="49" height="178.5"/>
  <object id="60" x="1740" y="1314" width="81" height="91.5"/>
  <object id="62" x="1705" y="1216" width="27.5" height="314.5"/>
  <object id="63" x="1790" y="1479" width="130" height="50.75"/>
  <object id="64" x="1818.67" y="1532" width="100.333" height="35"/>
  <object id="65" x="1852.33" y="1568.33" width="67.6667" height="30.6667"/>
  <object id="66" x="1884" y="1600.67" width="35.6667" height="29.3333"/>
  <object id="67" x="1093.33" y="1006.67" width="825.333" height="32"/>
  <object id="68" x="1094.67" y="1041" width="46" height="396"/>
  <object id="70" x="996.333" y="1311.33" width="30.3333" height="123.333"/>
  <object id="71" x="1292" y="399.667" width="15.3333" height="111"/>
  <object id="72" x="1308.67" y="384" width="201.333" height="20.6667"/>
  <object id="73" x="1511" y="398.667" width="21.6667" height="114"/>
  <object id="74" x="1436.33" y="513.667" width="96" height="28.3333"/>
  <object id="75" x="1646" y="408" width="17.3333" height="165"/>
  <object id="76" x="1443.5" y="541.5" width="200.5" height="30.5"/>
  <object id="77" x="1664" y="545.5" width="132" height="28.5"/>
  <object id="78" x="1731" y="505.5" width="64" height="38.5"/>
  <object id="79" x="1890.5" y="405.5" width="30" height="166.5"/>
  <object id="80" x="1852" y="549" width="37" height="26"/>
  <object id="81" x="1660.5" y="379" width="254.5" height="25.5"/>
  <object id="82" x="1292.33" y="512.333" width="88" height="28.6667"/>
  <object id="83" x="1314.67" y="542.333" width="59.6667" height="28"/>
  <object id="84" x="1263" y="1486" width="21" height="293"/>
  <object id="85" x="991.667" y="1513.33" width="269.667" height="16.6667"/>
  <object id="86" x="1006" y="1531.67" width="4.66667" height="112"/>
  <object id="87" x="992.5" y="1645.5" width="126.5" height="11.5"/>
  <object id="88" x="1217.5" y="1642" width="43.5" height="14.5"/>
  <object id="89" x="1100" y="1531.5" width="136.5" height="54"/>
  <object id="90" x="1286.5" y="1484" width="159" height="46.5"/>
  <object id="91" x="1226.5" y="1486" width="35" height="25.5"/>
  <object id="92" x="1287.25" y="1532.5" width="126.25" height="35"/>
  <object id="93" x="1287.75" y="1569" width="92.5" height="23.5"/>
  <object id="94" x="1287" y="1595.5" width="61" height="36.75"/>
  <object id="95" x="1287.25" y="1633.25" width="28.75" height="29.75"/>
  <object id="96" x="1190.67" y="898.333" width="729" height="59"/>
  <object id="97" x="226" y="1538" width="156.667" height="64.6667"/>
  <object id="98" x="481.333" y="1531" width="160.667" height="67"/>
  <object id="99" x="705.333" y="1527.33" width="157.333" height="72"/>
  <object id="101" x="580.5" y="1601.5" width="300.5" height="320"/>
  <object id="102" x="388" y="1605.33" width="124.667" height="151.333"/>
  <object id="103" x="227.333" y="1604" width="122" height="218.667"/>
  <object id="104" x="28.3333" y="1540.67" width="97" height="282"/>
  <object id="105" x="68" y="1824.33" width="185.667" height="63.6667"/>
  <object id="106" x="33" y="654" width="18" height="317"/>
  <object id="107" x="53" y="655" width="104" height="12"/>
  <object id="108" x="192.667" y="654" width="254" height="13"/>
  <object id="109" x="296.333" y="669" width="15.3333" height="130"/>
  <object id="110" x="480.667" y="654" width="157.333" height="12"/>
  <object id="111" x="618" y="666" width="12" height="124.667"/>
  <object id="112" x="620.667" y="832.667" width="7.33333" height="149.333"/>
  <object id="113" x="480" y="972.667" width="158.667" height="13.3333"/>
  <object id="114" x="300.667" y="832.667" width="7.33333" height="140"/>
  <object id="115" x="192.667" y="974" width="254.667" height="12.6667"/>
  <object id="116" x="33.3333" y="972.667" width="124.667" height="12"/>
  <object id="117" x="132" y="547.333" width="85.3333" height="28.6667"/>
  <object id="118" x="196.667" y="366" width="16.6667" height="180"/>
  <object id="119" x="38" y="370.667" width="22.6667" height="174.667"/>
  <object id="120" x="38.6667" y="547.667" width="61.3333" height="26.6667"/>
  <object id="121" x="1.33333" y="2" width="24.6667" height="1917"/>
  <object id="122" x="28" y="1" width="859" height="19"/>
  <object id="123" x="62" y="356.5" width="132.5" height="15.5"/>
  <object id="124" x="296" y="314.333" width="16" height="272.667"/>
  <object id="125" x="290" y="295.333" width="482" height="17.6667"/>
  <object id="126" x="618.667" y="314.667" width="11.3333" height="273.333"/>
  <object id="127" x="289.667" y="589.333" width="155" height="14"/>
  <object id="128" x="481.333" y="590" width="157.333" height="13.3333"/>
  <object id="129" x="349.5" y="195.5" width="510" height="26"/>
  <object id="130" x="265" y="61" width="25" height="157"/>
  <object id="131" x="33" y="34" width="245.5" height="25"/>
  <object id="132" x="28" y="61.5" width="26" height="206"/>
  <object id="133" x="35" y="269.5" width="714" height="9"/>
  <object id="134" x="834" y="223" width="29" height="89"/>
  <object id="136" x="434.667" y="45.6667" width="51.3333" height="108.667"/>
  <object id="137" x="567" y="100" width="51.3333" height="50"/>
  <object id="140" x="290.667" y="32.3333" width="63" height="87.3333"/>
  <object id="141" x="835.333" y="99.333" width="46" height="94"/>
  <object id="142" x="219" y="318" width="68" height="272"/>
  <object id="144" x="866.5" y="217" width="187" height="4.5"/>
  <object id="145" x="363" y="61.3333" width="71" height="62.6667"/>
  <object id="146" x="619.833" y="49" width="204" height="74.6667"/>
  <object id="147" x="487.167" y="61" width="79" height="62.6667"/>
  <object id="148" x="384" y="1579" width="95.5" height="17"/>
  <object id="149" x="643.25" y="1582.5" width="59.5" height="15"/>
  <object id="150" x="1734" y="1222.5" width="180" height="14"/>
  <object id="151" x="1734" y="1422.5" width="82" height="11"/>
  <object id="152" x="1822" y="1315" width="45.5" height="56.5"/>
 </objectgroup>
 <objectgroup id="9" name="Entidade" locked="1">
  <object id="51" name="Player" type="Spawnpoint" gid="856" x="977" y="347" width="32" height="32"/>
 </objectgroup>
</map>
